X:135
T: HIER TRETEN WIR HER
N: E1201A
O: Europa, Mitteleuropa, Deutschland, West - Holstein, Ditmarschen
R: Ansinge -, Brauchtums - Lied, Kirchen - Fest, Heilige drei Koenige
M: 3/4
L: 1/8
K: C
G,2 | C3B,CE | D3C
B,C | D3B,CA, | G,2z2
F2 | E2G2C2 | F4
D2 | C2C2B,2 | C4

